X:1
T:[ID 2-81]
T:[ID 2-81]
T:Bezeichnung standardisiert: Polonaise Polonoise
T:Urheber unbekannt Datum in der hier transkribierten schriftlichen Quelle: 1767
C:Urheber unbekannt
C:Datum in der hier transkribierten schriftlichen Quelle: 1767
L:1/8
M:3/4
K:A
V:1 treble 
V:1
 A/c/e/c/ a2 AB | A6 | Af f/a/f/d/ e2 | A/c/e/c/ aA/B/ A2 | E d2 c2 B | E e2 d2 c | E d2 c2 B | %7
"^O)" c/E/e/E/ c/E/e/E/ c/E/e/E/ | B/E/d/E/ B/E/d/E/ B/E/d/E/ |"^O)" c/E/e/E/ c/E/e/E/ c/E/e/E/ | %10
 B/E/d/E/ B/E/d/E/ B/E/d/E/ | ce/c/ A2 B2 | ce/c/ A2 B2 | c/B/A/G/{G} A4 :| %14
 !fermata!c'aaa a/b/c'/a/ | bggg g/a/b/g/ | ff/g/ agfe | ^d/e/f/d/ B4 | %18
"^O)" g/B/b/B/ g/B/b/B/ g/B/b/B/ | f/B/a/B/ f/B/a/B/ f/B/a/B/ |"^O)" g/B/b/B/ g/B/b/B/ g/B/b/B/ | %21
 f/B/a/B/ f/B/a/B/ f/B/a/B/ | gb/g/ e2 f2 | g/f/e/^d/ e2 E2!D.C.! || %24

